X: 192
T: Qia Suantai
L: 1/8
M: 2/4
K: G
d> e d A/ [I:setbarnb 1]| 
d> g e d | 
A2d A | 
G EG2 | 
A A e/ d d/ | 
c d A A/ G/ | 
E/ E A,/ G E | 
D4 |]

@@@ Tune index: 9066
